svg/emoji_u1fac1.svg

<?xml version="1.0" encoding="utf-8"?>
<!-- Generator: Adobe Illustrator 24.0.3, SVG Export Plug-In . SVG Version: 6.00 Build 0)  -->
<svg version="1.1" id="Layer_2" xmlns="http://www.w3.org/2000/svg" xmlns:xlink="http://www.w3.org/1999/xlink" x="0" y="0"
	 viewBox="0 0 128 128" style="enable-background:new 0 0 128 128;" xml:space="preserve">
<path style="fill:#FEA8A7;" d="M42.17,20.59C33.54,20.62,13.64,33.83,6.7,64s0.33,48.53,22.52,50.25
	c21.77,1.69,28.24-13.56,29.22-18.81c2.88-15.35,0.25-40.88-2.75-54.77S50.76,20.56,42.17,20.59z"/>
<path style="fill:#FED0B0;" d="M73.29,92.99c1.19,5.17,1,9.47,3.52,13.94c3.1,5.49,7.89,6.33,7.89,6.33l-4.23-23.65l-9.71-10.14
	l-1.54,2.55C69.21,82.03,72.21,88.31,73.29,92.99z"/>
<path style="fill:#FEA8A7;" d="M86.49,21.46c8.53-0.04,28.19,13.14,35.05,43.05c6.86,29.92-0.32,48.13-22.25,49.83
	c-7,0.54-12.39,0.3-16.52-1.79c-3.89-3.38-2.48-11.06-4.29-19.3c-0.87-3.98-5.16-8.8-9.26-11.31c-0.24-14.03,1.74-30.43,3.93-40.58
	C76.11,27.6,78.21,21.5,86.49,21.46z"/>
<linearGradient id="SVGID_1_" gradientUnits="userSpaceOnUse" x1="38.2845" y1="33.9454" x2="32.9385" y2="71.9838">
	<stop  offset="0.2937" style="stop-color:#FEA8A7"/>
	<stop  offset="0.5476" style="stop-color:#FEA4A2"/>
	<stop  offset="0.8265" style="stop-color:#FE9895"/>
</linearGradient>
<path style="fill:url(#SVGID_1_);" d="M8.04,58.89c0,0,5.7,8.34,21.93,12.29s29.58,1.69,29.58,1.69s-0.9-16.07-2.38-24.13
	S40.86,34.01,37.95,33.91s-17.1,0.36-17.1,0.36s-4.35,5.18-7.09,10.49C10.83,50.46,8.04,58.89,8.04,58.89z"/>
<linearGradient id="SVGID_2_" gradientUnits="userSpaceOnUse" x1="43.7349" y1="72.5915" x2="15.6008" y2="96.1988">
	<stop  offset="0.4043" style="stop-color:#FEA8A7"/>
	<stop  offset="0.6094" style="stop-color:#FEA3A1"/>
	<stop  offset="0.8236" style="stop-color:#FE9895"/>
</linearGradient>
<path style="fill:url(#SVGID_2_);" d="M4.56,76.53c0,0,8.61,9.38,13.03,16.05s13.21,21.73,13.21,21.73s10.06,1,17.74-4.25
	c4.88-3.35,8.34-5.43,10.09-15.66S39.83,78.96,36.54,78.87c-3.28-0.09-18.91-8.75-20.98-11.04s-8.08-6.74-8.08-6.74
	s-1.31,5.14-1.63,6.84C5.54,69.62,4.56,76.53,4.56,76.53z"/>
<linearGradient id="SVGID_3_" gradientUnits="userSpaceOnUse" x1="85.2991" y1="61.8074" x2="106.4858" y2="94.4321">
	<stop  offset="0.3525" style="stop-color:#FEA8A7"/>
	<stop  offset="0.7936" style="stop-color:#FE9B99"/>
	<stop  offset="0.8931" style="stop-color:#FE9895"/>
</linearGradient>
<path style="fill:url(#SVGID_3_);" d="M80.45,108.47c0,0,6.49-0.23,20.48-10.74s21.77-27.56,21.77-27.56s-1.15-5.73-1.56-7.3
	c-0.4-1.57-20.78,0.97-26.03,2.76c-5.26,1.78-25.68,6.48-25.68,6.48s-0.24,9.49-0.22,9.92c0.26,0.02,6.92,5.41,8.21,8.63
	c1.78,4.44,1.89,9.34,2.03,11.53C79.64,105.07,80.45,108.47,80.45,108.47z"/>
<path style="fill:#FEE5C3;" d="M21.24,54.84c-1.03-0.75-2.53-2.25-1.69-3.28c0.84-1.03,3.1,0.38,4.22,1.22
	c1.13,0.84,3.1,2.44,3.1,2.44l8.54-1.03c0,0-7.04-6.1-8.35-7.23c-1.31-1.13-4.13-3.38-2.91-4.69c1.22-1.31,3.47,0.84,4.69,1.97
	c1.22,1.13,9.39,7.32,9.39,7.32s-1.78-5.91-2.35-7.7c-0.56-1.78-2.16-5.35-0.47-6.01c1.69-0.66,2.72,2.91,3.57,4.88
	c0.84,1.97,5.82,13.42,5.82,13.42s1.88,2.11,3.66,1.1c1.78-1.01,11.22-11.24,11.22-11.24l-0.13-34.73c0,0,1.67-0.66,4.02-0.75
	s4.41,0.75,4.41,0.75l0.38,34.91c0,0,9.01,10.7,10.98,11.07s3.57,0.75,4.5,0c0.94-0.75,7.23-11.07,7.79-12.86
	c0.56-1.78-1.31-7.04,0-7.79c1.31-0.75,2.16,1.41,2.63,3c0.47,1.6,1.03,3.28,1.03,3.28s2.06-0.47,3.28-0.84
	c1.22-0.38,2.82-0.38,3,0.56c0.19,0.94-2.91,2.53-4.32,3.47c-1.41,0.94-3.66,1.69-3.28,3.19s3.38,1.03,5.44,1.13
	c2.06,0.09,3.38,0.38,3.38,1.5c0,1.13-3.19,1.66-5.73,1.77c-2.53,0.11-5.91,0-5.91,0s-1.88,3.13-1.88,4.01s5.26,1.54,8.35,2.1
	c3.1,0.56,10.14,1,10.04,2.61c-0.09,1.61-2.5,1.43-4.13,1.57c-1.63,0.14-5.69-0.89-5.63,0c0.06,0.89,3.75,4.36,2.25,5.3
	c-1.5,0.94-3.66-2.25-5.07-3.66s-2.35-2.25-2.35-2.25S80.56,63.49,80.46,64c-0.09,0.51,7.7,10.65,9.1,11.12
	c1.41,0.47,8.26,1.69,10.7,2.06c2.44,0.38,4.88,1.13,4.69,2.3c-0.19,1.17-3.1,1.08-5.07,1.08s-5.35,0-5.35,0s6.48,5.74,7.88,7.37
	s7.04,6.23,5.26,7.55c-1.78,1.31-9.24-6.18-11-7.55s-5.99-4.56-6.36-4.19s2.63,5.35,3.28,6.57s3.41,5.16,1.38,6.05
	c-1.58,0.69-5.97-7.36-6.54-7.36c-0.56,0-0.84,8.26-2.25,7.88s-1.5-3.28-1.69-8.35c-0.19-5.07,0.84-7.88-0.28-9.06
	c-1.13-1.17-5.73-9.15-7.51-10.56S64,57.28,64,57.28S52.68,67.42,50.34,69.3c-2.35,1.88-6.85,5.54-7.32,6.48s-1.13,4.04-1.03,5.16
	c0.09,1.13,3.1,8.17,3.66,9.29c0.56,1.13,2.44,5.26,0.94,5.73s-3.38-3.57-4.13-4.79c-0.75-1.22-2.63-4.41-2.63-4.41
	s-1.69,7.5-2.44,9.62c-0.75,2.11-2.44,8.68-4.32,7.46c-1.88-1.22-0.94-4.23,0-7.46c0.94-3.23,1.69-5.86,1.6-6.24
	s-6.48,3.19-7.7,4.04c-1.22,0.84-4.69,3-5.54,1.5c-0.84-1.5,3-3.94,4.41-4.88s10.32-6.57,10.32-6.57s0.09-1.03,0.66-3.66
	s0.75-4.22,0.75-4.22l-5.83,0.28c0,0-3.46,3.28-4.4,4.32c-0.94,1.03-3.1,3.75-3.94,2.35c-0.84-1.41,3-5.63,3-5.63
	s-2.82-0.19-4.22-0.09c-1.41,0.09-3.1,0.19-3.19-1.13c-0.09-1.31,5.07-2.38,7.6-2.93s11.26-2.42,11.26-2.42l7.6-7.08
	c0,0-5.26-5.5-6.1-5.59c-0.84-0.09-10.98,0.56-10.98,0.56s-2.06,1.88-3,2.82s-2.53,3.3-3.75,2.21c-1.22-1.09,0.19-2.59,0.94-3.62
	l1.6-2.71"/>
<linearGradient id="SVGID_4_" gradientUnits="userSpaceOnUse" x1="63.0701" y1="7.5369" x2="63.0701" y2="69.6095">
	<stop  offset="0.3101" style="stop-color:#FED3B3"/>
	<stop  offset="0.6473" style="stop-color:#FED5B5"/>
	<stop  offset="0.7686" style="stop-color:#FEDCBB"/>
	<stop  offset="0.8413" style="stop-color:#FEE5C3"/>
</linearGradient>
<path style="fill:url(#SVGID_4_);" d="M48.46,57.26c1.78-1.01,11.22-11.24,11.22-11.24L59.55,8.29c0,0,1.67-0.66,4.02-0.75
	c2.35-0.09,4.41,0.75,4.41,0.75l0.38,37.91c0,0,9.01,10.7,10.98,11.07s1.22,6.21,1.13,6.72c-0.09,0.51-1.97,6.33-3.75,4.92
	S64,57.28,64,57.28S52.68,67.42,50.34,69.3c-2.35,1.88-4.88-5.3-4.88-5.3S46.68,58.27,48.46,57.26z"/>
<path style="fill:#F2A159;" d="M58.15,34.92c0.01,2.25,2.05,2.04,5.85,2.04s5.69,0.22,5.7-2.04c0.01-2.6-2.25-2.11-5.77-2.11
	C60.4,32.81,58.14,32.46,58.15,34.92z"/>
<path style="fill:#F2A159;" d="M58.23,28.24c0.01,2.25,2.05,2.04,5.85,2.04s5.69,0.22,5.7-2.04c0.01-2.6-2.25-2.11-5.77-2.11
	C60.48,26.12,58.22,25.77,58.23,28.24z"/>
<path style="fill:#F2A159;" d="M58.23,21.55c0.01,2.25,2.05,2.04,5.85,2.04s5.69,0.22,5.7-2.04c0.01-2.6-2.25-2.11-5.77-2.11
	C60.48,19.44,58.22,19.08,58.23,21.55z"/>
<path style="fill:#F2A159;" d="M58.23,15.07c0.01,2.25,2.05,2.04,5.85,2.04s5.69,0.22,5.7-2.04c0.01-2.6-2.25-2.11-5.77-2.11
	C60.48,12.96,58.22,12.61,58.23,15.07z"/>
</svg>

<?xml version="1.0" encoding="UTF-8" standalone="no"?>
<!DOCTYPE svg PUBLIC "-//W3C//DTD SVG 1.1//EN" "http://www.w3.org/Graphics/SVG/1.1/DTD/svg11.dtd">
<svg width="100%" height="100%" viewBox="0 0 128 128" version="1.1" xmlns="http://www.w3.org/2000/svg" xmlns:xlink="http://www.w3.org/1999/xlink" xml:space="preserve" xmlns:serif="http://www.serif.com/" style="fill-rule:evenodd;clip-rule:evenodd;stroke-linejoin:round;stroke-miterlimit:2;">
    <path d="M42.17,20.59C33.54,20.62 13.64,33.83 6.7,64C-0.24,94.17 7.03,112.53 29.22,114.25C50.99,115.94 57.46,100.69 58.44,95.44C61.32,80.09 58.69,54.56 55.69,40.67C52.69,26.78 50.76,20.56 42.17,20.59Z" style="fill:rgb(254,168,167);fill-rule:nonzero;"/>
    <path d="M69.255,81.962L69.22,81.94C68.98,67.91 70.96,51.51 73.15,41.36C76.11,27.6 78.21,21.5 86.49,21.46C95.02,21.42 114.68,34.6 121.54,64.51C128.4,94.43 121.22,112.64 99.29,114.34C92.742,114.845 87.602,114.668 83.585,112.931C81.982,112.339 78.981,110.775 76.81,106.93C74.29,102.46 74.48,98.16 73.29,92.99C72.21,88.31 69.21,82.03 69.22,82.02L69.255,81.962Z" style="fill:rgb(254,168,167);fill-rule:nonzero;"/>
    <path d="M21.24,54.84C20.21,54.09 18.71,52.59 19.55,51.56C20.39,50.53 22.65,51.94 23.77,52.78C24.9,53.62 26.87,55.22 26.87,55.22L35.41,54.19C35.41,54.19 28.37,48.09 27.06,46.96C25.75,45.83 22.93,43.58 24.15,42.27C25.37,40.96 27.62,43.11 28.84,44.24C30.06,45.37 38.23,51.56 38.23,51.56C38.23,51.56 36.45,45.65 35.88,43.86C35.32,42.08 33.72,38.51 35.41,37.85C37.1,37.19 38.13,40.76 38.98,42.73C39.82,44.7 44.8,56.15 44.8,56.15C44.8,56.15 46.68,58.26 48.46,57.25C50.24,56.24 59.68,46.01 59.68,46.01L59.55,11.28C59.55,11.28 61.22,10.62 63.57,10.53C65.92,10.44 67.98,11.28 67.98,11.28L68.36,46.19C68.36,46.19 77.37,56.89 79.34,57.26C81.31,57.63 82.91,58.01 83.84,57.26C84.78,56.51 91.07,46.19 91.63,44.4C92.19,42.62 90.32,37.36 91.63,36.61C92.94,35.86 93.79,38.02 94.26,39.61C94.73,41.21 95.29,42.89 95.29,42.89C95.29,42.89 97.35,42.42 98.57,42.05C99.79,41.67 101.39,41.67 101.57,42.61C101.76,43.55 98.66,45.14 97.25,46.08C95.84,47.02 93.59,47.77 93.97,49.27C94.35,50.77 97.35,50.3 99.41,50.4C101.47,50.49 102.79,50.78 102.79,51.9C102.79,53.03 99.6,53.56 97.06,53.67C94.53,53.78 91.15,53.67 91.15,53.67C91.15,53.67 89.27,56.8 89.27,57.68C89.27,58.56 94.53,59.22 97.62,59.78C100.72,60.34 107.76,60.78 107.66,62.39C107.57,64 105.16,63.82 103.53,63.96C101.9,64.1 97.84,63.07 97.9,63.96C97.96,64.85 101.65,68.32 100.15,69.26C98.65,70.2 96.49,67.01 95.08,65.6C93.67,64.19 92.73,63.35 92.73,63.35C92.73,63.35 80.56,63.49 80.46,64C80.37,64.51 88.16,74.65 89.56,75.12C90.97,75.59 97.82,76.81 100.26,77.18C102.7,77.56 105.14,78.31 104.95,79.48C104.76,80.65 101.85,80.56 99.88,80.56L94.53,80.56C94.53,80.56 101.01,86.3 102.41,87.93C103.81,89.56 109.45,94.16 107.67,95.48C105.89,96.79 98.43,89.3 96.67,87.93C94.91,86.56 90.68,83.37 90.31,83.74C89.94,84.11 92.94,89.09 93.59,90.31C94.24,91.53 97,95.47 94.97,96.36C93.39,97.05 89,89 88.43,89C87.87,89 87.59,97.26 86.18,96.88C84.77,96.5 84.68,93.6 84.49,88.53C84.3,83.46 85.33,80.65 84.21,79.47C83.08,78.3 78.48,70.32 76.7,68.91C74.92,67.5 64,57.28 64,57.28C64,57.28 52.68,67.42 50.34,69.3C47.99,71.18 43.49,74.84 43.02,75.78C42.55,76.72 41.89,79.82 41.99,80.94C42.08,82.07 45.09,89.11 45.65,90.23C46.21,91.36 48.09,95.49 46.59,95.96C45.09,96.43 43.21,92.39 42.46,91.17C41.71,89.95 39.83,86.76 39.83,86.76C39.83,86.76 38.14,94.26 37.39,96.38C36.64,98.49 34.95,105.06 33.07,103.84C31.19,102.62 32.13,99.61 33.07,96.38C34.01,93.15 34.76,90.52 34.67,90.14C34.58,89.76 28.19,93.33 26.97,94.18C25.75,95.02 22.28,97.18 21.43,95.68C20.59,94.18 24.43,91.74 25.84,90.8C27.25,89.86 36.16,84.23 36.16,84.23C36.16,84.23 36.25,83.2 36.82,80.57C37.39,77.94 37.57,76.35 37.57,76.35L31.74,76.63C31.74,76.63 28.28,79.91 27.34,80.95C26.4,81.98 24.24,84.7 23.4,83.3C22.56,81.89 26.4,77.67 26.4,77.67C26.4,77.67 23.58,77.48 22.18,77.58C20.77,77.67 19.08,77.77 18.99,76.45C18.9,75.14 24.06,74.07 26.59,73.52C29.12,72.97 37.85,71.1 37.85,71.1L45.45,64.02C45.45,64.02 40.19,58.52 39.35,58.43C38.51,58.34 28.37,58.99 28.37,58.99C28.37,58.99 26.31,60.87 25.37,61.81C24.43,62.75 22.84,65.11 21.62,64.02C20.4,62.93 21.81,61.43 22.56,60.4L24.16,57.69" style="fill:rgb(254,229,195);fill-rule:nonzero;"/>
    <path d="M48.46,57.26C50.24,56.25 59.68,46.02 59.68,46.02L59.55,8.29C59.55,8.29 61.22,7.63 63.57,7.54C65.92,7.45 67.98,8.29 67.98,8.29L68.36,46.2C68.36,46.2 77.37,56.9 79.34,57.27C81.31,57.64 80.56,63.48 80.47,63.99C80.38,64.5 78.5,70.32 76.72,68.91C74.94,67.5 64,57.28 64,57.28C64,57.28 52.68,67.42 50.34,69.3C47.99,71.18 45.46,64 45.46,64C45.46,64 46.68,58.27 48.46,57.26Z" style="fill:url(#_Linear1);fill-rule:nonzero;"/>
    <defs>
        <linearGradient id="_Linear1" x1="0" y1="0" x2="1" y2="0" gradientUnits="userSpaceOnUse" gradientTransform="matrix(3.80085e-15,62.0726,-62.0726,3.80085e-15,63.0701,7.5369)"><stop offset="0" style="stop-color:rgb(254,211,179);stop-opacity:1"/><stop offset="0.31" style="stop-color:rgb(254,211,179);stop-opacity:1"/><stop offset="0.65" style="stop-color:rgb(254,213,181);stop-opacity:1"/><stop offset="0.77" style="stop-color:rgb(254,220,187);stop-opacity:1"/><stop offset="0.84" style="stop-color:rgb(254,229,195);stop-opacity:1"/><stop offset="1" style="stop-color:rgb(254,229,195);stop-opacity:1"/></linearGradient>
    </defs>
</svg>
